sands/images/hystory.svg

<svg width="59" height="55" viewBox="0 0 59 55" fill="none" xmlns="http://www.w3.org/2000/svg">
<path d="M1.70688 23.7199H6.83147C7.13457 24.8129 7.57118 25.8644 8.13264 26.8498L4.50552 30.4755C4.33232 30.6487 4.23489 30.8836 4.23489 31.129C4.23489 31.3743 4.33232 31.6092 4.50552 31.7824L8.42419 35.7022C8.78503 36.0623 9.36958 36.0623 9.73042 35.7022L13.3579 32.0744C14.3433 32.6355 15.3937 33.0724 16.4867 33.3752V38.4998C16.4867 39.01 16.9002 39.4235 17.4104 39.4235H22.9529C23.4631 39.4235 23.8766 39.01 23.8766 38.4998V33.3752C24.9696 33.0724 26.02 32.6355 27.0054 32.0744L30.6329 35.7022C30.9995 36.0486 31.5729 36.0486 31.9391 35.7022L35.8585 31.7824C36.0317 31.6092 36.1291 31.3743 36.1291 31.129C36.1291 30.8836 36.0317 30.6487 35.8585 30.4755L32.2307 26.8498C32.7921 25.8644 33.2287 24.8129 33.5318 23.7199H38.6564C39.1667 23.7199 39.5802 23.3064 39.5802 22.7962V17.2538C39.5802 16.7439 39.1667 16.33 38.6564 16.33H33.5318C33.2287 15.2374 32.7921 14.1859 32.2307 13.2005L35.8578 9.57482C36.031 9.40162 36.1284 9.16672 36.1284 8.92135C36.1284 8.67598 36.031 8.44108 35.8578 8.26788L31.9391 4.34812C31.5783 3.98765 30.9937 3.98765 30.6329 4.34812L27.0054 7.97596C26.02 7.41522 24.9692 6.97825 23.8766 6.67515V1.5502C23.8766 1.04034 23.4631 0.626465 22.9529 0.626465H17.4104C16.9002 0.626465 16.4867 1.04034 16.4867 1.5502V6.67515C15.3941 6.97825 14.3433 7.41522 13.3579 7.97596L9.73042 4.34812C9.36381 4.00172 8.79044 4.00172 8.42419 4.34812L4.5048 8.26788C4.3316 8.44108 4.23417 8.67598 4.23417 8.92135C4.23417 9.16672 4.3316 9.40162 4.5048 9.57482L8.13264 13.2005C7.57118 14.1859 7.13457 15.2374 6.83147 16.33H1.70688C1.19666 16.33 0.783142 16.7439 0.783142 17.2538V22.7962C0.783142 23.3064 1.19666 23.7199 1.70688 23.7199ZM2.63062 18.1775H7.55422C7.98831 18.1775 8.36393 17.8755 8.45667 17.4515C8.75977 16.0681 9.30788 14.7496 10.075 13.5588C10.3092 13.1936 10.2572 12.7141 9.95017 12.407L6.46414 8.92099L9.07731 6.30746L12.5626 9.79349C12.8697 10.1013 13.3496 10.1532 13.7155 9.9187C14.9066 9.15193 16.2247 8.60382 17.6082 8.30035C18.0318 8.20726 18.3342 7.83163 18.3342 7.39754V2.47394H22.0291V7.39754C22.0291 7.83163 22.3315 8.20726 22.7551 8.30035C24.1386 8.60382 25.4567 9.15193 26.6478 9.9187C27.0137 10.1532 27.4936 10.1013 27.8007 9.79349L31.286 6.30746L33.8985 8.92099L30.4131 12.4059C30.1054 12.7134 30.0538 13.1933 30.2883 13.5588C31.0554 14.7503 31.6028 16.0684 31.9056 17.4522C31.9987 17.8762 32.3743 18.1786 32.808 18.1786H37.7327V21.8735H32.808C32.3743 21.8735 31.9987 22.1756 31.9056 22.5995C31.6028 23.983 31.0551 25.3011 30.2883 26.4912C30.0541 26.8567 30.1061 27.3362 30.4131 27.6433L33.8992 31.1286L31.286 33.7429L27.8007 30.2565C27.4936 29.949 27.0137 29.8971 26.6478 30.1316C25.4574 30.8988 24.1397 31.4469 22.7562 31.75C22.3319 31.8423 22.0291 32.2183 22.0291 32.6524V37.576H18.3342V32.6524C18.3342 32.2183 18.0314 31.8423 17.6071 31.75C16.2237 31.4469 14.9059 30.8988 13.7155 30.1316C13.3496 29.8971 12.8697 29.949 12.5626 30.2565L9.07731 33.7429L6.46486 31.1293L9.95017 27.644C10.258 27.337 10.3096 26.857 10.075 26.4912C9.30788 25.3 8.75977 23.9815 8.45667 22.5977C8.36357 22.1738 7.98831 21.8725 7.55422 21.8725H2.63062V18.1775Z" fill="white"/>
<path d="M20.1816 27.4149C24.2631 27.4149 27.5716 24.1068 27.5716 20.025C27.5716 15.9436 24.2631 12.6351 20.1816 12.6351C16.1002 12.6351 12.7917 15.9436 12.7917 20.025C12.7961 24.1042 16.1024 27.4106 20.1816 27.4149ZM20.1816 14.4825C23.2423 14.4825 25.7241 16.9644 25.7241 20.025C25.7241 23.0859 23.2423 25.5674 20.1816 25.5674C17.121 25.5674 14.6392 23.0859 14.6392 20.025C14.6425 16.9651 17.1218 14.4858 20.1816 14.4825Z" fill="white"/>
<path d="M20.1817 30.186C25.7934 30.186 30.3428 25.6369 30.3428 20.0248C30.3428 14.4131 25.7934 9.86371 20.1817 9.86371C14.5699 9.86371 10.0205 14.4131 10.0205 20.0248C10.0274 25.634 14.5725 30.1795 20.1817 30.186ZM20.1817 11.7112C24.7733 11.7112 28.4953 15.4332 28.4953 20.0248C28.4953 24.6165 24.7733 28.3385 20.1817 28.3385C15.59 28.3385 11.868 24.6165 11.868 20.0248C11.8731 15.4357 15.5922 11.7162 20.1817 11.7112Z" fill="white"/>
<path d="M53.4362 43.1184V35.7285C53.4362 35.2187 53.0227 34.8048 52.5125 34.8048H50.665V27.4149C50.665 26.905 50.2515 26.4911 49.7413 26.4911H41.4276C40.9174 26.4911 40.5039 26.905 40.5039 27.4149V34.8048H35.8852C35.375 34.8048 34.9615 35.2187 34.9615 35.7285V43.1184H5.40182C2.85216 43.1217 0.786374 45.1875 0.783127 47.7371V49.5846C0.786374 52.1346 2.85216 54.2004 5.40182 54.2033H53.4362C55.9859 54.2004 58.0517 52.1346 58.0549 49.5846V47.7371C58.0517 45.1875 55.9859 43.1217 53.4362 43.1184ZM51.5888 43.1184H45.1226V36.6523H51.5888V43.1184ZM42.3514 28.3386H48.8176V34.8048H42.3514V28.3386ZM36.8089 36.6523H43.2751V43.1184H36.8089V36.6523ZM56.2075 49.5846C56.2075 51.1153 54.9665 52.3558 53.4362 52.3558H5.40182C3.87152 52.3558 2.6306 51.1153 2.6306 49.5846V47.7371C2.6306 46.2068 3.87152 44.9659 5.40182 44.9659H53.4362C54.9665 44.9659 56.2075 46.2068 56.2075 47.7371V49.5846Z" fill="white"/>
<path d="M29.419 45.8895C27.8887 45.8895 26.6478 47.1304 26.6478 48.6607C26.6478 50.1913 27.8887 51.4319 29.419 51.4319C30.9493 51.4319 32.1902 50.1913 32.1902 48.6607C32.1902 47.1304 30.9493 45.8895 29.419 45.8895ZM29.419 49.5844C28.9088 49.5844 28.4953 49.1709 28.4953 48.6607C28.4953 48.1508 28.9088 47.7369 29.419 47.7369C29.9292 47.7369 30.3428 48.1508 30.3428 48.6607C30.3428 49.1709 29.9292 49.5844 29.419 49.5844Z" fill="white"/>
<path d="M20.1817 45.8895C18.6514 45.8895 17.4104 47.1304 17.4104 48.6607C17.4104 50.1913 18.6514 51.4319 20.1817 51.4319C21.712 51.4319 22.9529 50.1913 22.9529 48.6607C22.9529 47.1304 21.712 45.8895 20.1817 45.8895ZM20.1817 49.5844C19.6714 49.5844 19.2579 49.1709 19.2579 48.6607C19.2579 48.1508 19.6714 47.7369 20.1817 47.7369C20.6919 47.7369 21.1054 48.1508 21.1054 48.6607C21.1054 49.1709 20.6919 49.5844 20.1817 49.5844Z" fill="white"/>
<path d="M38.6564 45.8895C37.1261 45.8895 35.8852 47.1304 35.8852 48.6607C35.8852 50.1913 37.1261 51.4319 38.6564 51.4319C40.1867 51.4319 41.4276 50.1913 41.4276 48.6607C41.4276 47.1304 40.1867 45.8895 38.6564 45.8895ZM38.6564 49.5844C38.1462 49.5844 37.7327 49.1709 37.7327 48.6607C37.7327 48.1508 38.1462 47.7369 38.6564 47.7369C39.1666 47.7369 39.5801 48.1508 39.5801 48.6607C39.5801 49.1709 39.1666 49.5844 38.6564 49.5844Z" fill="white"/>
<path d="M10.9443 45.8895C9.41395 45.8895 8.17303 47.1304 8.17303 48.6607C8.17303 50.1913 9.41395 51.4319 10.9443 51.4319C12.4746 51.4319 13.7155 50.1913 13.7155 48.6607C13.7155 47.1304 12.4746 45.8895 10.9443 45.8895ZM10.9443 49.5844C10.434 49.5844 10.0205 49.1709 10.0205 48.6607C10.0205 48.1508 10.434 47.7369 10.9443 47.7369C11.4545 47.7369 11.868 48.1508 11.868 48.6607C11.868 49.1709 11.4545 49.5844 10.9443 49.5844Z" fill="white"/>
<path d="M47.8938 45.8895C46.3635 45.8895 45.1226 47.1304 45.1226 48.6607C45.1226 50.1913 46.3635 51.4319 47.8938 51.4319C49.4241 51.4319 50.665 50.1913 50.665 48.6607C50.665 47.1304 49.4241 45.8895 47.8938 45.8895ZM47.8938 49.5844C47.3836 49.5844 46.9701 49.1709 46.9701 48.6607C46.9701 48.1508 47.3836 47.7369 47.8938 47.7369C48.404 47.7369 48.8176 48.1508 48.8176 48.6607C48.8176 49.1709 48.404 49.5844 47.8938 49.5844Z" fill="white"/>
</svg>

<svg width="59" height="55" fill="none" xmlns="http://www.w3.org/2000/svg"><path d="M1.707 23.72H6.83c.304 1.093.74 2.144 1.302 3.13l-3.627 3.625a.924.924 0 000 1.307l3.918 3.92c.361.36.946.36 1.306 0l3.628-3.628a13.73 13.73 0 003.129 1.301V38.5c0 .51.413.923.923.923h5.543c.51 0 .924-.413.924-.923v-5.125a13.73 13.73 0 003.128-1.3l3.628 3.627a.95.95 0 001.306 0l3.92-3.92a.924.924 0 000-1.306L32.23 26.85c.561-.986.998-2.037 1.3-3.13h5.125c.51 0 .924-.414.924-.924v-5.542a.924.924 0 00-.924-.924h-5.124a13.744 13.744 0 00-1.301-3.13l3.627-3.625a.924.924 0 000-1.307l-3.919-3.92a.924.924 0 00-1.306 0l-3.628 3.628a13.767 13.767 0 00-3.128-1.3V1.55a.924.924 0 00-.924-.924H17.41a.924.924 0 00-.923.924v5.125c-1.093.303-2.144.74-3.13 1.301L9.73 4.348a.95.95 0 00-1.306 0l-3.92 3.92a.924.924 0 000 1.307l3.63 3.625a13.741 13.741 0 00-1.304 3.13H1.707a.924.924 0 00-.924.924v5.542c0 .51.414.924.924.924zm.924-5.543h4.923c.434 0 .81-.302.903-.726a11.886 11.886 0 011.618-3.892.924.924 0 00-.125-1.152L6.464 8.921l2.613-2.614 3.486 3.486a.924.924 0 001.152.126A11.903 11.903 0 0117.608 8.3a.925.925 0 00.726-.902V2.474h3.695v4.924c0 .434.302.81.726.902 1.384.304 2.702.852 3.893 1.619a.924.924 0 001.153-.126l3.485-3.486 2.612 2.614-3.485 3.485a.924.924 0 00-.125 1.153 11.884 11.884 0 011.618 3.893.924.924 0 00.902.727h4.925v3.695h-4.925a.924.924 0 00-.902.726 11.872 11.872 0 01-1.618 3.891.924.924 0 00.125 1.152L33.9 31.13l-2.613 2.614-3.485-3.487a.924.924 0 00-1.153-.124 11.874 11.874 0 01-3.892 1.618.924.924 0 00-.727.902v4.924h-3.695v-4.924a.924.924 0 00-.727-.902 11.875 11.875 0 01-3.891-1.618.924.924 0 00-1.153.124l-3.486 3.487-2.612-2.614 3.485-3.485a.924.924 0 00.125-1.153 11.89 11.89 0 01-1.618-3.893.923.923 0 00-.903-.726H2.631v-3.695z" fill="#fff"/><path d="M20.182 27.415a7.39 7.39 0 100-14.78 7.39 7.39 0 00-7.39 7.39 7.398 7.398 0 007.39 7.39zm0-12.932a5.543 5.543 0 11-5.543 5.542 5.548 5.548 0 015.543-5.542z" fill="#fff"/><path d="M20.182 30.186c5.611 0 10.16-4.55 10.16-10.161 0-5.612-4.549-10.161-10.16-10.161-5.612 0-10.161 4.55-10.161 10.16.006 5.61 4.551 10.155 10.16 10.162zm0-18.475a8.313 8.313 0 11-8.314 8.314 8.323 8.323 0 018.314-8.314zm33.254 31.407v-7.39a.924.924 0 00-.923-.923h-1.848v-7.39a.924.924 0 00-.924-.924h-8.313a.924.924 0 00-.924.924v7.39h-4.619a.924.924 0 00-.923.923v7.39H5.402a4.624 4.624 0 00-4.619 4.62v1.847a4.624 4.624 0 004.619 4.618h48.034a4.624 4.624 0 004.619-4.618v-1.848a4.624 4.624 0 00-4.619-4.619zm-1.847 0h-6.466v-6.466h6.466v6.466zm-9.238-14.78h6.467v6.467H42.35v-6.466zm-5.542 8.314h6.466v6.466H36.81v-6.466zm19.399 12.933a2.771 2.771 0 01-2.772 2.77H5.402a2.771 2.771 0 01-2.771-2.77v-1.848a2.77 2.77 0 012.77-2.771h48.035c1.53 0 2.772 1.24 2.772 2.771v1.848z" fill="#fff"/><path d="M29.419 45.89a2.771 2.771 0 100 5.542 2.771 2.771 0 000-5.543zm0 3.694a.924.924 0 110-1.847.924.924 0 010 1.847zm-9.237-3.694a2.772 2.772 0 100 5.543 2.772 2.772 0 000-5.544zm0 3.694a.924.924 0 110-1.847.924.924 0 010 1.847zm18.474-3.694a2.771 2.771 0 100 5.542 2.771 2.771 0 000-5.543zm0 3.694a.924.924 0 110-1.847.924.924 0 010 1.847zM10.944 45.89a2.771 2.771 0 100 5.542 2.771 2.771 0 000-5.543zm0 3.694a.924.924 0 110-1.847.924.924 0 010 1.847zm36.95-3.694a2.771 2.771 0 100 5.542 2.771 2.771 0 000-5.543zm0 3.694a.924.924 0 110-1.847.924.924 0 010 1.847z" fill="#fff"/></svg>
